img/dragon_logo.svg

<svg enable-background="new 0 0 1024 1008" viewBox="0 0 1024 1008" xmlns="http://www.w3.org/2000/svg"><g fill="#fcfcfc"><path d="m562.260864 626.742188c-19.625976-20.513245-42.943725-34.233094-70.04071-41.123658-20.37497-5.181213-41.003449-5.959228-61.854401-2.01123-27.044311 5.120727-50.700958 16.724121-71.266571 34.938965-7.783264 6.893615-9.310974 9.456421-14.636474-2.922974-15.256806-35.464966-39.448334-63.498108-72.0672-84.062439-28.344422-17.869507-59.344803-27.372833-92.949219-28.321503-26.006439-.73413-51.018402 3.722321-75.144897 13.389679-7.762268 3.11023-9.803498 1.228943-8.890877-7.251495 2.51207-23.342896 6.494209-46.402802 12.615043-69.079315 8.628014-31.965119 20.90033-62.469025 36.651062-91.587403 19.398407-35.861877 43.628556-68.172485 72.36467-97.003326 33.437851-33.548096 71.487274-60.81929 114.151032-81.525436 8.091034-3.926834 9.281158-3.302643 12.120209 5.832855 10.238525 32.945465 28.295562 60.820038 54.161438 83.635849 15.256835 13.457733 32.419128 23.872406 51.11557 31.799621 8.040802 3.409241 8.352844 5.331391 1.580932 11.109742-16.168854 13.796753-27.304626 30.859619-32.792145 51.40512-9.193908 34.422364-2.386901 65.691437 19.866425 93.315217 12.04718 14.954528 27.219055 26.922271 41.049652 40.155029 35.027008 33.512878 70.74411 66.311279 105.469513 100.13031 25.561768 24.89447 41.503601 55.395386 48.796143 90.519409 5.445556 26.228272 5.156128 52.271301-1.144593 78.132507-9.622192 39.494141-30.478515 72.080567-62.07373 97.722107-26.151245 21.223633-56.158692 33.93982-89.383423 38.011414-43.336884 5.310669-83.760468-3.871826-120.526733-27.828369-2.33075-1.518677-6.470215-2.936646-5.209992-6.384339 1.266571-3.465271 5.202667-1.753906 8.046051-1.457641 23.817505 2.482605 46.848084.392395 68.218048-11.545044 4.389588-2.452149 8.221161-5.642151 12.004486-8.926575 3.975495-3.451233 6.606171-2.816406 8.009766 2.243897 2.332306 8.408264.450958 16.138061-4.792206 23.059997-.80249 1.059448-1.833313 1.9469-2.626434 3.012268-1.429321 1.920105-4.909729 3.308716-3.742279 5.912476 1.23172 2.747009 4.876648 2.489685 7.611633 2.544128 63.243286 1.257813 110.333588-25.607605 140.199188-81.513122 9.019532-16.883789 13.520752-35.30896 14.689453-54.531006 2.564576-42.181702-11.209045-78.417847-39.57843-109.795715z"/><path d="m638.175903 323.707275c-1.069885-2.426483-1.471069-4.853607-3.880188-6.043426-2.935974 1.075012-1.957946 3.628998-1.919311 5.542267.254211 12.592682-1.29834 24.937347-5.066956 36.943359-.930725 2.965088-1.110901 7.723511-5.122253 7.544739-3.347962-.14917-3.12323-4.612854-3.746521-7.400543-5.277893-23.60669-17.324768-43.031739-35.695679-58.684204-5.356323-4.56363-4.752258-7.086335 1.754517-9.876069 53.163879-22.793487 88.975769-61.421585 106.457885-116.75621 2.395936-7.583603 4.575379-8.388946 12.617493-4.417084 33.646668 16.617432 64.648255 37.181778 92.806152 62.03302 56.708558 50.049118 97.413636 110.800888 121.820069 182.376572 9.690246 28.418213 16.36084 57.552216 19.25769 87.511871.671753 6.94748 2.068543 13.815308 1.947876 20.850098-.113708 6.628967-1.833008 7.829346-7.804931 4.647156-7.650025-4.076477-15.315674-8.079468-23.382569-11.292114-34.148071-13.599518-69.344909-17.575837-105.345459-9.983857-61.856994 13.044709-106.164367 48.670624-133.482666 105.619538-1.418457 2.957031-1.501953 7.789489-5.720337 7.973327-4.581482.199707-5.034973-4.764648-6.590637-7.839904-14.452392-28.571961-35.503906-51.738282-58.798584-73.260071-24.596741-22.724732-48.706665-45.976502-73.018677-69.009217-15.967346-15.127075-32.005859-30.180511-47.847931-45.437805-16.469177-15.861206-22.627746-35.260864-17.048919-57.400512 5.918823-23.488892 21.68341-38.612763 45.194641-43.028077 39.866089-7.486602 70.040954 22.982453 69.871216 57.255249-.048218 9.734559-2.203858 18.816803-6.660584 27.337128-2.125061 4.062561-1.615295 6.959869 1.739319 10.114685 20.997864 19.747223 41.897644 39.599487 62.733032 59.51825 3.196106 3.055572 6.063416 3.520965 9.635254.818206 7.041199-5.328033 14.168396-10.543701 21.30658-15.741912 3.151977-2.295258 3.884338-4.867981 2.312378-8.616639-9.716004-23.169799-14.719971-47.280883-13.791992-72.482147.171325-4.650207.301208-9.384674 1.280883-13.900024 1.065918-4.912628.032532-9.128876-1.949402-13.498352-4.676757-10.310456-9.150024-20.713257-13.861389-31.417298z"/><path d="m625.812012 405.449677c2.77417 5.143219 1.564148 10.040466-.041748 14.697357-.938721 2.722076-3.679993 2.957855-5.742188 1.101318-5.414245-4.874298-10.654968-9.944855-15.864929-15.039368-1.029358-1.006591-1.905823-2.467041-.902527-4.031189.92749-1.446014 2.537232-1.617218 4.009522-1.397461 6.200134.925568 12.51184 1.44043 18.54187 4.669343z"/></g></svg>

<svg version="1.1" id="Layer_1" xmlns="http://www.w3.org/2000/svg" xmlns:xlink="http://www.w3.org/1999/xlink" x="0px" y="0px"
	 width="100%" viewBox="0 0 1024 1008" enable-background="new 0 0 1024 1008" xml:space="preserve">
<path fill="#FCFCFC" opacity="1.000000" stroke="none"
	d="
M562.260864,626.742188 
	C542.634888,606.228943 519.317139,592.509094 492.220154,585.618530 
	C471.845184,580.437317 451.216705,579.659302 430.365753,583.607300 
	C403.321442,588.728027 379.664795,600.331421 359.099182,618.546265 
	C351.315918,625.439880 349.788208,628.002686 344.462708,615.623291 
	C329.205902,580.158325 305.014374,552.125183 272.395508,531.560852 
	C244.051086,513.691345 213.050705,504.188019 179.446289,503.239349 
	C153.439850,502.505219 128.427887,506.961670 104.301392,516.629028 
	C96.539124,519.739258 94.497894,517.857971 95.410515,509.377533 
	C97.922585,486.034637 101.904724,462.974731 108.025558,440.298218 
	C116.653572,408.333099 128.925888,377.829193 144.676620,348.710815 
	C164.075027,312.848938 188.305176,280.538330 217.041290,251.707489 
	C250.479141,218.159393 288.528564,190.888199 331.192322,170.182053 
	C339.283356,166.255219 340.473480,166.879410 343.312531,176.014908 
	C353.551056,208.960373 371.608093,236.834946 397.473969,259.650757 
	C412.730804,273.108490 429.893097,283.523163 448.589539,291.450378 
	C456.630341,294.859619 456.942383,296.781769 450.170471,302.560120 
	C434.001617,316.356873 422.865845,333.419739 417.378326,353.965240 
	C408.184418,388.387604 414.991425,419.656677 437.244751,447.280457 
	C449.291931,462.234985 464.463806,474.202728 478.294403,487.435486 
	C513.321411,520.948364 549.038513,553.746765 583.763916,587.565796 
	C609.325684,612.460266 625.267517,642.961182 632.560059,678.085205 
	C638.005615,704.313477 637.716187,730.356506 631.415466,756.217712 
	C621.793274,795.711853 600.936951,828.298279 569.341736,853.939819 
	C543.190491,875.163452 513.183044,887.879639 479.958313,891.951233 
	C436.621429,897.261902 396.197845,888.079407 359.431580,864.122864 
	C357.100830,862.604187 352.961365,861.186218 354.221588,857.738525 
	C355.488159,854.273254 359.424255,855.984619 362.267639,856.280884 
	C386.085144,858.763489 409.115723,856.673279 430.485687,844.735840 
	C434.875275,842.283691 438.706848,839.093689 442.490173,835.809265 
	C446.465668,832.358032 449.096344,832.992859 450.499939,838.053162 
	C452.832245,846.461426 450.950897,854.191223 445.707733,861.113159 
	C444.905243,862.172607 443.874420,863.060059 443.081299,864.125427 
	C441.651978,866.045532 438.171570,867.434143 439.339020,870.037903 
	C440.570740,872.784912 444.215668,872.527588 446.950653,872.582031 
	C510.193939,873.839844 557.284241,846.974426 587.149841,791.068909 
	C596.169373,774.185120 600.670593,755.759949 601.839294,736.537903 
	C604.403870,694.356201 590.630249,658.120056 562.260864,626.742188 
z"/>
<path fill="#FCFCFC" opacity="1.000000" stroke="none"
	d="
M638.175903,323.707275 
	C637.106018,321.280792 636.704834,318.853668 634.295715,317.663849 
	C631.359741,318.738861 632.337769,321.292847 632.376404,323.206116 
	C632.630615,335.798798 631.078064,348.143463 627.309448,360.149475 
	C626.378723,363.114563 626.198547,367.872986 622.187195,367.694214 
	C618.839233,367.545044 619.063965,363.081360 618.440674,360.293671 
	C613.162781,336.686981 601.115906,317.261932 582.744995,301.609467 
	C577.388672,297.045837 577.992737,294.523132 584.499512,291.733398 
	C637.663391,268.939911 673.475281,230.311813 690.957397,174.977188 
	C693.353333,167.393585 695.532776,166.588242 703.574890,170.560104 
	C737.221558,187.177536 768.223145,207.741882 796.381042,232.593124 
	C853.089600,282.642242 893.794678,343.394012 918.201111,414.969696 
	C927.891357,443.387909 934.561951,472.521912 937.458801,502.481567 
	C938.130554,509.429047 939.527344,516.296875 939.406677,523.331665 
	C939.292969,529.960632 937.573669,531.161011 931.601746,527.978821 
	C923.951721,523.902344 916.286072,519.899353 908.219177,516.686707 
	C874.071106,503.087189 838.874268,499.110870 802.873718,506.702850 
	C741.016724,519.747559 696.709351,555.373474 669.391052,612.322388 
	C667.972595,615.279419 667.889099,620.111877 663.670715,620.295715 
	C659.089233,620.495422 658.635742,615.531067 657.080078,612.455811 
	C642.627686,583.883850 621.576172,560.717529 598.281494,539.195740 
	C573.684753,516.471008 549.574829,493.219238 525.262817,470.186523 
	C509.295471,455.059448 493.256958,440.006012 477.414886,424.748718 
	C460.945709,408.887512 454.787140,389.487854 460.365967,367.348206 
	C466.284790,343.859314 482.049377,328.735443 505.560608,324.320129 
	C545.426697,316.833527 575.601562,347.302582 575.431824,381.575378 
	C575.383606,391.309937 573.227966,400.392181 568.771240,408.912506 
	C566.646179,412.975067 567.155945,415.872375 570.510559,419.027191 
	C591.508423,438.774414 612.408203,458.626678 633.243591,478.545441 
	C636.439697,481.601013 639.307007,482.066406 642.878845,479.363647 
	C649.920044,474.035614 657.047241,468.819946 664.185425,463.621735 
	C667.337402,461.326477 668.069763,458.753754 666.497803,455.005096 
	C656.781799,431.835297 651.777832,407.724213 652.705811,382.522949 
	C652.877136,377.872742 653.007019,373.138275 653.986694,368.622925 
	C655.052612,363.710297 654.019226,359.494049 652.037292,355.124573 
	C647.360535,344.814117 642.887268,334.411316 638.175903,323.707275 
z"/>
<path fill="#FCFCFC" opacity="1.000000" stroke="none"
	d="
M625.812012,405.449677 
	C628.586182,410.592896 627.376160,415.490143 625.770264,420.147034 
	C624.831543,422.869110 622.090271,423.104889 620.028076,421.248352 
	C614.613831,416.374054 609.373108,411.303497 604.163147,406.208984 
	C603.133789,405.202393 602.257324,403.741943 603.260620,402.177795 
	C604.188110,400.731781 605.797852,400.560577 607.270142,400.780334 
	C613.470276,401.705902 619.781982,402.220764 625.812012,405.449677 
z"/>
</svg>
